X:269
L:1/8
M:2/4
K:F
 c/c/ |"F" cA cc/c/ | cA cc/c/ | cA cf |"C7" e2 z c/c/ | cG cc/c/ | cG cc/c/ | cb ag | 
"F" f2 z c/c/ | cA cc/c/ | cA cc/c/ | cA cf |"C" e3 c |"G7" =Bd g>f |"C" fe dc |"G7" =Bd g>B | 
"C" cc c z ||"C7" (c2 b2) | a2 g2 |"F" g>f f2 | z c dc |"C7" (ce) e2 | z c dc |"F" cf f2 | z c dc | 
"C7" c2 b2 | a2 g2 |"F" g>f f2 | z c dc |"C7" ce e2 | z c de | ea eg |"F" ff f z |: 
[K:Bb]"Bb" dd/d/ df | dd/d/ df |"F7" fe/e/ eg |"Bb" g2 f2 | dd/d/ df | dd/d/ df |"F7" cc/c/ dc | 
"Bb" BB B z :|

